_site/images/features/icons/circle-cancel.svg

<svg height="42" viewBox="0 0 42 42" width="42" xmlns="http://www.w3.org/2000/svg"><g fill="#ff647c" fill-rule="evenodd"><circle cx="21" cy="21" fill-opacity=".3" r="21"/><path d="m14.71 7.29c-.1877666-.18931265-.4433625-.29579832-.71-.29579832s-.5222334.10648567-.71.29579832l-2.29 2.3-2.29-2.3c-.39212218-.39212215-1.02787781-.39212213-1.41999997.00000003s-.39212218 1.02787779-.00000003 1.41999997l2.3 2.29-2.3 2.29c-.18931265.1877666-.29579832.4433625-.29579832.71s.10648567.5222334.29579832.71c.1877666.1893127.44336246.2957983.71.2957983s.5222334-.1064856.71-.2957983l2.29-2.3 2.29 2.3c.1877666.1893127.4433625.2957983.71.2957983s.5222334-.1064856.71-.2957983c.1893127-.1877666.2957983-.4433625.2957983-.71s-.1064856-.5222334-.2957983-.71l-2.3-2.29 2.3-2.29c.1893127-.1877666.2957983-.44336246.2957983-.71s-.1064856-.5222334-.2957983-.71zm3.36-3.36c-2.5107447-2.59956584-6.2287789-3.64212597-9.72507324-2.72697157-3.49629432.91515441-6.22674392 3.64560401-7.14189833 7.14189833-.9151544 3.49629434.12740573 7.21432854 2.72697157 9.72507324 2.5107447 2.5995658 6.2287789 3.642126 9.7250732 2.7269716 3.4962944-.9151544 6.226744-3.645604 7.1418984-7.1418984.9151544-3.4962943-.1274058-7.2143285-2.7269716-9.7250732zm-1.41 12.73c-2.6971168 2.7001167-6.92593989 3.1191158-10.10047806 1.0007729s-4.41072314-6.1840964-2.95260855-9.71098892c1.45811459-3.52689255 5.20446245-5.53272965 8.94809351-4.79091068 3.7436311.74181896 6.4419921 4.02470688 6.4449931 7.8411267.0072065 2.1234639-.8353983 4.1615593-2.34 5.66z" fill-rule="nonzero" transform="translate(10 10)"/></g></svg>

<?xml version="1.0" encoding="UTF-8"?>
<svg width="42px" height="42px" viewBox="0 0 42 42" version="1.1" xmlns="http://www.w3.org/2000/svg" xmlns:xlink="http://www.w3.org/1999/xlink">
    <!-- Generator: Sketch 52.6 (67491) - http://www.bohemiancoding.com/sketch -->
    <title>Group 6</title>
    <desc>Created with Sketch.</desc>
    <g id="Landing-page" stroke="none" stroke-width="1" fill="none" fill-rule="evenodd">
        <g id="1.3--Features" transform="translate(-245.000000, -1580.000000)" fill="#FF647C">
            <g id="solutions" transform="translate(0.000000, 468.000000)">
                <g id="Group-10" transform="translate(245.000000, 955.000000)">
                    <g id="Group-6" transform="translate(0.000000, 157.000000)">
                        <circle id="Oval" fill-opacity="0.3" cx="21" cy="21" r="21"></circle>
                        <g id="times-circle" transform="translate(10.000000, 10.000000)" fill-rule="nonzero">
                            <path d="M14.71,7.29 C14.5222334,7.10068735 14.2666375,6.99420168 14,6.99420168 C13.7333625,6.99420168 13.4777666,7.10068735 13.29,7.29 L11,9.59 L8.71,7.29 C8.31787782,6.89787785 7.68212219,6.89787787 7.29000003,7.29000003 C6.89787787,7.68212219 6.89787785,8.31787782 7.29,8.71 L9.59,11 L7.29,13.29 C7.10068735,13.4777666 6.99420168,13.7333625 6.99420168,14 C6.99420168,14.2666375 7.10068735,14.5222334 7.29,14.71 C7.4777666,14.8993127 7.73336246,15.0057983 8,15.0057983 C8.26663754,15.0057983 8.5222334,14.8993127 8.71,14.71 L11,12.41 L13.29,14.71 C13.4777666,14.8993127 13.7333625,15.0057983 14,15.0057983 C14.2666375,15.0057983 14.5222334,14.8993127 14.71,14.71 C14.8993127,14.5222334 15.0057983,14.2666375 15.0057983,14 C15.0057983,13.7333625 14.8993127,13.4777666 14.71,13.29 L12.41,11 L14.71,8.71 C14.8993127,8.5222334 15.0057983,8.26663754 15.0057983,8 C15.0057983,7.73336246 14.8993127,7.4777666 14.71,7.29 Z M18.07,3.93 C15.5592553,1.33043416 11.8412211,0.287874028 8.34492676,1.20302843 C4.84863244,2.11818284 2.11818284,4.84863244 1.20302843,8.34492676 C0.287874028,11.8412211 1.33043416,15.5592553 3.93,18.07 C6.4407447,20.6695658 10.1587789,21.712126 13.6550732,20.7969716 C17.1513676,19.8818172 19.8818172,17.1513676 20.7969716,13.6550732 C21.712126,10.1587789 20.6695658,6.4407447 18.07,3.93 Z M16.66,16.66 C13.9628832,19.3601167 9.73406011,19.7791158 6.55952194,17.6607729 C3.38498377,15.54243 2.1487988,11.4766765 3.60691339,7.94978398 C5.06502798,4.42289143 8.81137584,2.41705433 12.5550069,3.1588733 C16.298638,3.90069226 18.996999,7.18358018 19,11 C19.0072065,13.1234639 18.1646017,15.1615593 16.66,16.66 Z" id="Shape"></path>
                        </g>
                    </g>
                </g>
            </g>
        </g>
    </g>
</svg>
